;FLAVOR:Marlin
;TIME:14081
;Filament used: 9.12129m
;Layer height: 0.2
;MINX:85.2
;MINY:48.296
;MINZ:0.2
;MAXX:149.8
;MAXY:138.896
;MAXZ:29
;Generated with Cura_SteamEngine 5.3.1
M140 S50
M105
M190 S50
M104 S200
M105
M109 S200
M82 ;absolute extrusion mode
; Ender 3 Custom Start G-code
G92 E0 ; Reset Extruder
G28 ; Home all axes
G1 Z2.0 F3000 ; Move Z Axis up little to prevent scratching of Heat Bed
G1 X0.1 Y20 Z0.3 F5000.0 ; Move to start position
G1 X0.1 Y200.0 Z0.3 F1500.0 E15 ; Draw the first line
G1 X0.4 Y200.0 Z0.3 F5000.0 ; Move to side a little
G1 X0.4 Y20 Z0.3 F1500.0 E30 ; Draw the second line
G92 E0 ; Reset Extruder
G1 Z2.0 F3000 ; Move Z Axis up little to prevent scratching of Heat Bed
G1 X5 Y20 Z0.3 F5000.0 ; Move over to prevent blob squish
G92 E0
G92 E0
G1 F2700 E-5
;LAYER_COUNT:145
;LAYER:0
M107
G0 F6000 X86.719 Y51.32 Z0.2
;TYPE:SKIRT
G1 F2700 E0
G1 F1200 X88.294 Y49.846 E0.07175
G1 X90.166 Y48.734 E0.14417
G1 X92.353 Y48.296 E0.21835
G1 X142.853 Y48.296 E1.89799
G1 X144.749 Y48.762 E1.96293
G1 X146.776 Y49.815 E2.0389
G1 X148.25 Y51.39 E2.11065
G1 X149.362 Y53.262 E2.18307
G1 X149.8 Y55.449 E2.25725
G1 X149.8 Y116.678 E4.29373
G1 X148.607 Y120.609 E4.43037
G1 X146.868 Y124.457 E4.57082
G1 X145.085 Y127.288 E4.68209
G1 X142.44 Y130.453 E4.81928
G1 X139.714 Y132.921 E4.94159
G1 X137.211 Y134.676 E5.04326
G1 X133.282 Y136.702 E5.19029
G1 X129.597 Y137.969 E5.3199
G1 X126.751 Y138.563 E5.4166
G1 X122.945 Y138.882 E5.54363
G1 X92.147 Y138.896 E6.56797
G1 X90.251 Y138.43 E6.63291
G1 X88.224 Y137.377 E6.70889
G1 X86.75 Y135.802 E6.78063
G1 X85.638 Y133.93 E6.85305
G1 X85.2 Y131.743 E6.92724
G1 X85.2 Y55.243 E9.47164
G1 X85.666 Y53.347 E9.53657
G1 X86.719 Y51.32 E9.61255
G0 F6000 X87.042 Y51.565
G1 F1200 X88.535 Y50.168 E9.68055
G1 X90.312 Y49.112 E9.7493
G1 X92.391 Y48.696 E9.81982
G1 X142.807 Y48.696 E11.49667
G1 X144.606 Y49.138 E11.55828
G1 X146.531 Y50.138 E11.63043
G1 X147.928 Y51.631 E11.69844
G1 X148.984 Y53.408 E11.76719
G1 X149.4 Y55.487 E11.83771
G1 X149.4 Y116.618 E13.87093
G1 X148.242 Y120.444 E14.00389
G1 X146.503 Y124.292 E14.14433
G1 X144.778 Y127.031 E14.25199
G1 X142.133 Y130.196 E14.38918
G1 X139.484 Y132.593 E14.508
G1 X136.981 Y134.348 E14.60968
G1 X133.152 Y136.324 E14.75299
G1 X129.515 Y137.577 E14.88094
G1 X126.669 Y138.171 E14.97763
G1 X122.912 Y138.483 E15.10302
G1 X92.193 Y138.496 E16.12474
G1 X90.394 Y138.054 E16.18636
G1 X88.469 Y137.054 E16.2585
G1 X87.072 Y135.561 E16.32651
G1 X86.016 Y133.784 E16.39526
G1 X85.6 Y131.705 E16.46578
G1 X85.6 Y55.289 E19.00739
G1 X86.042 Y53.49 E19.069
G1 X87.042 Y51.565 E19.14115
G0 F6000 X87.365 Y51.81
G1 F1200 X88.776 Y50.49 E19.20542
G1 X90.458 Y49.491 E19.27048
G1 X92.43 Y49.096 E19.33737
G1 X142.76 Y49.096 E21.01136
G1 X144.464 Y49.515 E21.06972
G1 X146.286 Y50.461 E21.138
G1 X147.606 Y51.872 E21.20227
G1 X148.605 Y53.554 E21.26733
G1 X149 Y55.526 E21.33423
G1 X149 Y116.558 E23.36416
G1 X147.877 Y120.279 E23.49343
G1 X146.138 Y124.127 E23.63388
G1 X144.471 Y126.774 E23.73792
G1 X141.826 Y129.939 E23.87511
G1 X139.254 Y132.265 E23.99045
G1 X136.751 Y134.02 E24.09213
G1 X133.021 Y135.946 E24.23175
G1 X129.433 Y137.185 E24.358
G1 X126.587 Y137.779 E24.4547
G1 X122.879 Y138.084 E24.57844
G1 X92.24 Y138.096 E25.5975
G1 X90.536 Y137.677 E25.65586
G1 X88.714 Y136.731 E25.72415
G1 X87.394 Y135.32 E25.78841
G1 X86.395 Y133.638 E25.85348
G1 X86 Y131.666 E25.92037
G1 X86 Y55.336 E28.45912
G1 X86.419 Y53.632 E28.51748
G1 X87.365 Y51.81 E28.58576
G0 F6000 X87.688 Y52.055
G1 F1200 X89.017 Y50.812 E28.64628
G1 X90.604 Y49.869 E28.70768
G1 X92.468 Y49.496 E28.77091
G1 X142.714 Y49.496 E30.4421
G1 X144.321 Y49.891 E30.49714
G1 X146.041 Y50.784 E30.5616
G1 X147.284 Y52.113 E30.62212
G1 X148.227 Y53.7 E30.68352
G1 X148.6 Y55.564 E30.74674
G1 X148.6 Y116.499 E32.77345
G1 X147.512 Y120.114 E32.89901
G1 X145.773 Y123.962 E33.03946
G1 X144.164 Y126.517 E33.13989
G1 X141.519 Y129.682 E33.27708
G1 X139.024 Y131.937 E33.38893
G1 X136.521 Y133.692 E33.49061
G1 X132.89 Y135.568 E33.62654
G1 X129.351 Y136.793 E33.7511
G1 X126.505 Y137.387 E33.8478
G1 X122.847 Y137.685 E33.96987
G1 X92.286 Y137.696 E34.98633
G1 X90.679 Y137.301 E35.04137
G1 X88.959 Y136.408 E35.10583
G1 X87.716 Y135.079 E35.16635
G1 X86.773 Y133.492 E35.22775
G1 X86.4 Y131.628 E35.29098
G1 X86.4 Y55.382 E37.82693
G1 X86.795 Y53.775 E37.88197
G1 X87.688 Y52.055 E37.94643
G0 F6000 X88.011 Y52.3
G1 F1200 X89.258 Y51.134 E38.00321
G1 X90.75 Y50.247 E38.06094
G1 X92.506 Y49.896 E38.1205
G1 X142.668 Y49.896 E39.7889
G1 X144.178 Y50.267 E39.84061
G1 X145.796 Y51.107 E39.90125
G1 X146.962 Y52.354 E39.95803
G1 X147.849 Y53.846 E40.01576
G1 X148.2 Y55.602 E40.07532
G1 X148.2 Y116.44 E42.0988
G1 X147.147 Y119.949 E42.22065
G1 X145.408 Y123.797 E42.3611
G1 X143.857 Y126.26 E42.45791
G1 X141.212 Y129.425 E42.5951
G1 X138.794 Y131.609 E42.70347
G1 X136.291 Y133.364 E42.80514
G1 X132.707 Y135.212 E42.93926
G1 X129.269 Y136.401 E43.06026
G1 X126.423 Y136.995 E43.15695
G1 X122.815 Y137.286 E43.27735
G1 X92.332 Y137.296 E44.29121
G1 X90.822 Y136.925 E44.34293
G1 X89.204 Y136.085 E44.40357
G1 X88.038 Y134.838 E44.46035
G1 X87.151 Y133.346 E44.51808
G1 X86.8 Y131.59 E44.57764
G1 X86.8 Y55.428 E47.1108
G1 X87.171 Y53.918 E47.16251
G1 X88.011 Y52.3 E47.22315
G0 F6000 X88.334 Y52.545
G1 F1200 X89.499 Y51.456 E47.27619
G1 X90.896 Y50.625 E47.33025
G1 X92.544 Y50.296 E47.38615
G1 X142.621 Y50.296 E49.05172
G1 X144.036 Y50.644 E49.10018
G1 X145.551 Y51.43 E49.15695
G1 X146.64 Y52.595 E49.20999
G1 X147.471 Y53.992 E49.26405
G1 X147.8 Y55.64 E49.31995
G1 X147.8 Y116.382 E51.34023
G1 X146.782 Y119.784 E51.45834
G1 X145.043 Y123.632 E51.59879
G1 X143.55 Y126.003 E51.69198
G1 X140.905 Y129.168 E51.82917
G1 X138.564 Y131.281 E51.93406
G1 X136.061 Y133.036 E52.03573
G1 X132.524 Y134.856 E52.16804
G1 X129.187 Y136.009 E52.28546
G1 X126.341 Y136.603 E52.38216
G1 X122.783 Y136.887 E52.50088
G1 X92.379 Y136.896 E53.51212
G1 X90.964 Y136.548 E53.56058
G1 X89.449 Y135.762 E53.61735
G1 X88.36 Y134.597 E53.67039
G1 X87.529 Y133.2 E53.72445
G1 X87.2 Y131.552 E53.78035
G1 X87.2 Y55.475 E56.31068
G1 X87.548 Y54.06 E56.35915
G1 X88.334 Y52.545 E56.41591
G0 F6000 X88.657 Y52.79
G1 F1200 X89.738 Y51.78 E56.46512
G1 X91.044 Y51.003 E56.51566
G1 X92.582 Y50.696 E56.56783
G1 X142.575 Y50.696 E58.2306
G1 X143.893 Y51.02 E58.27574
G1 X145.306 Y51.753 E58.32869
G1 X146.316 Y52.834 E58.37789
G1 X147.093 Y54.14 E58.42843
G1 X147.4 Y55.678 E58.4806
G1 X147.4 Y116.324 E60.49769
G1 X146.399 Y119.669 E60.61382
G1 X144.704 Y123.419 E60.7507
G1 X143.243 Y125.746 E60.84208
G1 X140.598 Y128.911 E60.97927
G1 X138.334 Y130.953 E61.08068
G1 X135.831 Y132.708 E61.18235
G1 X132.341 Y134.5 E61.31284
G1 X129.105 Y135.617 E61.4267
G1 X126.259 Y136.211 E61.5234
G1 X122.752 Y136.488 E61.6404
G1 X92.425 Y136.496 E62.64908
G1 X91.107 Y136.172 E62.69423
G1 X89.694 Y135.439 E62.74717
G1 X88.684 Y134.358 E62.79637
G1 X87.907 Y133.052 E62.84692
G1 X87.6 Y131.514 E62.89908
G1 X87.6 Y55.521 E65.42662
G1 X87.924 Y54.203 E65.47176
G1 X88.657 Y52.79 E65.52471
G0 F6000 X88.98 Y53.035
G1 F1200 X89.977 Y52.104 E65.57008
G1 X91.192 Y51.381 E65.6171
G1 X92.62 Y51.096 E65.66553
G1 X142.529 Y51.096 E67.32551
G1 X143.75 Y51.396 E67.36733
G1 X145.061 Y52.076 E67.41645
G1 X145.992 Y53.073 E67.46182
G1 X146.715 Y54.288 E67.50885
G1 X147 Y55.716 E67.55728
G1 X147 Y116.266 E69.57118
G1 X146.016 Y119.554 E69.68533
G1 X144.365 Y123.206 E69.81863
G1 X142.904 Y125.533 E69.91002
G1 X140.33 Y128.614 E70.04355
G1 X138.104 Y130.625 E70.14333
G1 X135.601 Y132.38 E70.245
G1 X132.159 Y134.144 E70.37364
G1 X129.023 Y135.225 E70.48397
G1 X126.177 Y135.819 E70.58067
G1 X122.721 Y136.089 E70.69596
G1 X92.471 Y136.096 E71.70208
G1 X91.25 Y135.796 E71.7439
G1 X89.939 Y135.116 E71.79302
G1 X89.008 Y134.119 E71.83839
G1 X88.285 Y132.904 E71.88542
G1 X88 Y131.476 E71.93385
G1 X88 Y55.567 E74.45859
G1 X88.3 Y54.346 E74.50041
G1 X88.98 Y53.035 E74.54953
G0 F6000 X89.303 Y53.28
G1 F1200 X90.216 Y52.428 E74.59107
G1 X91.34 Y51.759 E74.63457
G1 X92.658 Y51.496 E74.67927
G1 X142.483 Y51.496 E76.33646
G1 X143.607 Y51.772 E76.37495
G1 X144.816 Y52.399 E76.42025
G1 X145.668 Y53.312 E76.46179
G1 X146.337 Y54.436 E76.50529
G1 X146.6 Y55.754 E76.54999
G1 X146.6 Y116.208 E78.5607
G1 X145.633 Y119.439 E78.67287
G1 X144.026 Y122.993 E78.8026
G1 X142.565 Y125.32 E78.89399
G1 X140.062 Y128.317 E79.02386
G1 X137.874 Y130.297 E79.12201
G1 X135.371 Y132.052 E79.22368
G1 X131.977 Y133.788 E79.35048
G1 X128.941 Y134.833 E79.45727
G1 X126.095 Y135.427 E79.55397
G1 X122.69 Y135.69 E79.66756
G1 X92.517 Y135.696 E80.67111
G1 X91.393 Y135.42 E80.70961
G1 X90.184 Y134.793 E80.75491
G1 X89.332 Y133.88 E80.79644
G1 X88.663 Y132.756 E80.83995
G1 X88.4 Y131.438 E80.88465
G1 X88.4 Y55.613 E83.4066
G1 X88.676 Y54.489 E83.44509
G1 X89.303 Y53.28 E83.49039
G0 F6000 X89.625 Y53.527
G1 F1200 X90.458 Y52.75 E83.52828
G1 X91.488 Y52.137 E83.56814
G1 X92.696 Y51.896 E83.60911
G1 X142.436 Y51.896 E85.26347
G1 X143.465 Y52.149 E85.29872
G1 X144.569 Y52.721 E85.34007
G1 X145.346 Y53.554 E85.37796
G1 X145.959 Y54.584 E85.41782
G1 X146.2 Y55.792 E85.45879
G1 X146.2 Y116.15 E87.46631
G1 X145.25 Y119.324 E87.5765
G1 X143.687 Y122.78 E87.70266
G1 X142.226 Y125.107 E87.79405
G1 X139.793 Y128.021 E87.92031
G1 X137.644 Y129.969 E88.01678
G1 X135.141 Y131.724 E88.11845
G1 X131.846 Y133.41 E88.24156
G1 X128.859 Y134.441 E88.34666
G1 X126.013 Y135.035 E88.44336
G1 X122.66 Y135.291 E88.5552
G1 X92.564 Y135.296 E89.5562
G1 X91.535 Y135.043 E89.59144
G1 X90.431 Y134.471 E89.6328
G1 X89.654 Y133.638 E89.67069
G1 X89.041 Y132.608 E89.71055
G1 X88.8 Y131.4 E89.75152
G1 X88.8 Y55.66 E92.27065
G1 X89.053 Y54.631 E92.30589
G1 X89.625 Y53.527 E92.34724
G0 F6000 X89.947 Y53.774
G1 F1200 X90.7 Y53.072 E92.38149
G1 X91.636 Y52.515 E92.41771
G1 X92.734 Y52.296 E92.45495
G1 X142.39 Y52.296 E94.10652
G1 X143.322 Y52.525 E94.13844
G1 X144.322 Y53.043 E94.17589
G1 X145.024 Y53.796 E94.21013
G1 X145.581 Y54.732 E94.24636
G1 X145.8 Y55.83 E94.2836
G1 X145.8 Y116.092 E96.28792
G1 X144.867 Y119.209 E96.39614
G1 X143.348 Y122.567 E96.51872
G1 X141.887 Y124.894 E96.61011
G1 X139.524 Y127.725 E96.73276
G1 X137.414 Y129.641 E96.82755
G1 X134.911 Y131.396 E96.92923
G1 X131.664 Y133.054 E97.05049
G1 X128.777 Y134.049 E97.15205
G1 X125.931 Y134.643 E97.24875
G1 X122.63 Y134.892 E97.35886
G1 X92.61 Y134.896 E98.35732
G1 X91.678 Y134.667 E98.38925
G1 X90.678 Y134.149 E98.4267
G1 X89.976 Y133.396 E98.46094
G1 X89.419 Y132.46 E98.49717
G1 X89.2 Y131.362 E98.53441
G1 X89.2 Y55.706 E101.05074
G1 X89.429 Y54.774 E101.08266
G1 X89.947 Y53.774 E101.12012
G0 F6000 X90.269 Y54.021
G1 F1200 X90.942 Y53.394 E101.15071
G1 X91.784 Y52.893 E101.1833
G1 X92.772 Y52.696 E101.2168
G1 X142.344 Y52.696 E102.86558
G1 X143.179 Y52.901 E102.89417
G1 X144.075 Y53.365 E102.92773
G1 X144.702 Y54.038 E102.95833
G1 X145.203 Y54.88 E102.99091
G1 X145.4 Y55.868 E103.02442
G1 X145.4 Y116.034 E105.02555
G1 X144.484 Y119.094 E105.13179
G1 X143.009 Y122.354 E105.2508
G1 X141.548 Y124.681 E105.34219
G1 X139.255 Y127.429 E105.46122
G1 X137.184 Y129.313 E105.55434
G1 X134.681 Y131.068 E105.65602
G1 X131.482 Y132.698 E105.77543
G1 X128.695 Y133.657 E105.87346
G1 X125.849 Y134.251 E105.97016
G1 X122.6 Y134.493 E106.07852
G1 X92.656 Y134.496 E107.07446
G1 X91.821 Y134.291 E107.10306
G1 X90.925 Y133.827 E107.13662
G1 X90.298 Y133.154 E107.16721
G1 X89.797 Y132.312 E107.1998
G1 X89.6 Y131.324 E107.23331
G1 X89.6 Y55.752 E109.74685
G1 X89.805 Y54.917 E109.77544
G1 X90.269 Y54.021 E109.809
G0 F6000 X90.591 Y54.268
G1 F1200 X91.184 Y53.716 E109.83595
G1 X91.932 Y53.271 E109.8649
G1 X92.81 Y53.096 E109.89467
G1 X142.298 Y53.096 E111.54065
G1 X143.036 Y53.277 E111.56592
G1 X143.828 Y53.687 E111.59559
G1 X144.38 Y54.28 E111.62253
G1 X144.825 Y55.028 E111.65148
G1 X145 Y55.906 E111.68126
G1 X145 Y115.976 E113.67919
G1 X144.101 Y118.979 E113.78345
G1 X142.67 Y122.141 E113.89889
G1 X141.209 Y124.468 E113.99028
G1 X138.985 Y127.133 E114.10573
G1 X136.954 Y128.985 E114.19714
G1 X134.451 Y130.74 E114.29882
G1 X131.351 Y132.32 E114.41455
G1 X128.613 Y133.265 E114.51088
G1 X125.767 Y133.859 E114.60758
G1 X122.571 Y134.094 E114.71417
G1 X92.702 Y134.096 E115.70762
G1 X91.964 Y133.915 E115.73289
G1 X91.172 Y133.505 E115.76255
G1 X90.62 Y132.912 E115.7895
G1 X90.175 Y132.164 E115.81845
G1 X90 Y131.286 E115.84822
G1 X90 Y55.798 E118.35896
G1 X90.181 Y55.06 E118.38424
G1 X90.591 Y54.268 E118.4139
G0 F6000 X90.914 Y54.513
G1 F1200 X91.423 Y54.04 E118.43701
G1 X92.08 Y53.649 E118.46244
G1 X92.848 Y53.496 E118.48848
G1 X142.248 Y53.496 E120.13154
G1 X142.897 Y53.655 E120.15376
G1 X143.583 Y54.01 E120.17945
G1 X144.056 Y54.519 E120.20256
G1 X144.447 Y55.176 E120.22799
G1 X144.6 Y55.944 E120.25404
G1 X144.6 Y115.918 E122.24878
G1 X143.718 Y118.864 E122.35106
G1 X142.331 Y121.928 E122.46292
G1 X140.87 Y124.255 E122.55431
G1 X138.715 Y126.837 E122.66617
G1 X136.684 Y128.689 E122.75759
G1 X134.222 Y130.412 E122.85754
G1 X131.22 Y131.942 E122.9696
G1 X128.531 Y132.873 E123.06425
G1 X125.685 Y133.467 E123.16095
G1 X122.542 Y133.695 E123.26576
G1 X92.752 Y133.696 E124.25658
G1 X92.103 Y133.537 E124.2788
G1 X91.417 Y133.182 E124.30449
G1 X90.944 Y132.673 E124.3276
G1 X90.553 Y132.016 E124.35303
G1 X90.4 Y131.248 E124.37908
G1 X90.4 Y55.848 E126.88689
G1 X90.559 Y55.199 E126.90912
G1 X90.914 Y54.513 E126.93481
G0 F6000 X91.237 Y54.758
G1 F1200 X91.662 Y54.364 E126.95408
G1 X92.228 Y54.027 E126.97599
G1 X92.886 Y53.896 E126.99831
G1 X142.198 Y53.896 E128.63843
G1 X142.758 Y54.033 E128.6576
G1 X143.338 Y54.333 E128.67932
G1 X143.732 Y54.758 E128.6986
G1 X144.069 Y55.324 E128.72051
G1 X144.2 Y55.982 E128.74282
G1 X144.2 Y115.86 E130.73437
G1 X143.335 Y118.749 E130.83468
G1 X141.992 Y121.715 E130.94297
G1 X140.531 Y124.042 E131.03435
G1 X138.445 Y126.541 E131.14262
G1 X136.414 Y128.393 E131.23404
G1 X133.993 Y130.084 E131.33226
G1 X131.089 Y131.564 E131.44067
G1 X128.449 Y132.481 E131.53362
G1 X125.603 Y133.075 E131.63032
G1 X122.513 Y133.296 E131.73336
G1 X92.802 Y133.296 E132.72155
G1 X92.242 Y133.159 E132.74072
G1 X91.662 Y132.859 E132.76244
G1 X91.268 Y132.434 E132.78172
G1 X90.931 Y131.868 E132.80363
G1 X90.8 Y131.21 E132.82594
G1 X90.8 Y55.898 E135.33083
G1 X90.937 Y55.338 E135.35
G1 X91.237 Y54.758 E135.37172
G0 F6000 X91.56 Y55.004
G1 F1200 X91.901 Y54.688 E135.38719
G1 X92.376 Y54.405 E135.40558
G1 X92.924 Y54.296 E135.42416
G1 X142.148 Y54.296 E137.06136
G1 X142.619 Y54.411 E137.07748
G1 X143.092 Y54.656 E137.0952
G1 X143.408 Y54.997 E137.11066
G1 X143.691 Y55.472 E137.12905
G1 X143.8 Y56.02 E137.14764
G1 X143.8 Y115.802 E139.13599
G1 X142.952 Y118.634 E139.23432
G1 X141.653 Y121.502 E139.33904
G1 X140.192 Y123.829 E139.43042
G1 X138.175 Y126.245 E139.5351
G1 X136.144 Y128.097 E139.62652
G1 X133.764 Y129.756 E139.72301
G1 X130.957 Y131.186 E139.82779
G1 X128.367 Y132.089 E139.91902
G1 X125.521 Y132.683 E140.01572
G1 X122.513 Y132.896 E140.11602
G1 X92.852 Y132.896 E141.10254
G1 X92.381 Y132.781 E141.11867
G1 X91.908 Y132.536 E141.13639
G1 X91.592 Y132.195 E141.15185
G1 X91.309 Y131.72 E141.17024
G1 X91.2 Y131.172 E141.18882
G1 X91.2 Y55.948 E143.69078
G1 X91.315 Y55.477 E143.70691
G1 X91.56 Y55.004 E143.72463
G0 F6000 X91.883 Y55.25
G1 F1200 X92.14 Y55.012 E143.73628
G1 X92.524 Y54.783 E143.75115
G1 X92.962 Y54.696 E143.766
G1 X142.098 Y54.696 E145.40027
G1 X142.48 Y54.789 E145.41335
G1 X142.846 Y54.979 E145.42706
G1 X143.084 Y55.236 E145.43871
G1 X143.313 Y55.62 E145.45358
G1 X143.4 Y56.058 E145.46844
G1 X143.4 Y115.744 E147.4536
G1 X142.569 Y118.519 E147.54995
G1 X141.314 Y121.289 E147.65109
G1 X139.853 Y123.616 E147.74248
G1 X137.905 Y125.949 E147.84357
G1 X135.874 Y127.801 E147.93499
G1 X133.536 Y129.428 E148.02972
G1 X130.825 Y130.808 E148.1309
G1 X128.285 Y131.697 E148.22041
G1 X125.439 Y132.291 E148.31711
G1 X122.513 Y132.496 E148.41466
G1 X92.902 Y132.496 E149.39953
G1 X92.52 Y132.403 E149.41261
G1 X92.154 Y132.213 E149.42632
G1 X91.916 Y131.956 E149.43797
G1 X91.687 Y131.572 E149.45284
G1 X91.6 Y131.134 E149.4677
